src/3-context/sign--turn-line.svg

<svg width="1300" height="1000" viewBox="0 0 1300 1000" fill="none" xmlns="http://www.w3.org/2000/svg"><path fill-rule="evenodd" clip-rule="evenodd" d="M232.808 147.518c2.292 1.655 5.037 2.482 8.235 2.482 3.198 0 5.937-.827 8.216-2.482 2.292-1.655 4.046-4.051 5.264-7.189 1.23-3.151 1.845-6.95 1.845-11.399 0-4.421-.615-8.194-1.845-11.319-1.218-3.124-2.972-5.507-5.264-7.149-2.292-1.641-5.031-2.462-8.216-2.462-3.185 0-5.924.821-8.216 2.462-2.279 1.642-4.033 4.025-5.263 7.149-1.217 3.111-1.832 6.885-1.845 11.319 0 4.435.608 8.228 1.825 11.379 1.23 3.138 2.985 5.541 5.264 7.209Zm14.12-7.487c-1.437 2.502-3.399 3.753-5.885 3.753-1.657 0-3.088-.556-4.292-1.668-1.204-1.125-2.137-2.793-2.797-5.004-.648-2.211-.965-4.938-.952-8.182.013-4.845.738-8.519 2.175-11.021 1.438-2.515 3.393-3.773 5.866-3.773 1.645 0 3.069.563 4.273 1.688 1.204 1.112 2.137 2.767 2.797 4.965.66 2.197.991 4.911.991 8.141 0 4.886-.726 8.586-2.176 11.101Zm-70.857 9.195a3.618 3.618 0 0 0 3.437-2.49l2.473-7.539h14.955l2.478 7.541a3.616 3.616 0 0 0 3.436 2.488c2.484 0 4.229-2.448 3.419-4.796l-10.92-31.67a6.236 6.236 0 0 0-11.794.002l-10.904 31.669c-.809 2.348.936 4.795 3.42 4.795Zm18.92-15.947-5.384-16.383h-.311l-5.374 16.383h11.069Z" fill="#000"/><path d="M279 113.556a5 5 0 0 0-5-5h-.361c-.975 0-1.93.285-2.745.821l-7.361 4.835a2.828 2.828 0 0 0-1.275 2.364c0 2.247 2.493 3.597 4.375 2.368l4.928-3.219h.233v29.898a3.603 3.603 0 0 0 7.206 0v-32.067Z" fill="#000"/><path fill-rule="evenodd" clip-rule="evenodd" d="M130 0h7v69h176V0h7v69h15c8.284 0 15 6.716 15 15v90c0 8.284-6.716 15-15 15H115c-8.284 0-15-6.716-15-15V84c0-8.284 6.716-15 15-15h15V0Zm213 86c0-5.523-4.477-10-10-10H117c-5.523 0-10 4.477-10 10v86c0 5.523 4.477 10 10 10h216c5.523 0 10-4.477 10-10V86Zm722.94 252.831c1.83-.165 8.8-1.278 12.43-3.009 4.35-2.07 8.29-5.681 10.88-9.598 1.87-2.826 3.56-8.377 4.35-11.251.34-1.209.55-2.445.7-3.691l2.76-24.167c.13-1.801.14-3.965-.01-5.762-.42-4.765-1.69-8.901-4.08-13.093-2.38-4.191-5.29-7.801-9.24-10.719-3.95-2.918-9.01-5.282-13.88-6.44-4.84-1.048-6.71-1.197-11.67-.931-4.6.44-7.22 1.117-11.46 2.955-5.45 2.367-8.43 4.38-12.42 8.741-3.74 4.091-5.45 6.947-7.24 12.161-1.74 5.076-2.19 8.269-1.74 13.601.19 2.242.99 5.678.99 5.678l6.18 23.706c.29 1.101.63 2.184 1.09 3.227 1.11 2.544 3.5 7.554 6.24 10.348 4.06 4.129 7.26 5.886 12.87 7.482 4.97 1.417 13.25.762 13.25.762Zm-.61-6.973c1.48-.133 7.09-1.049 10.01-2.495 3.49-1.73 6.66-4.759 8.74-8.05 1.45-2.304 2.75-6.77 3.41-9.242.3-1.166.5-2.355.62-3.555l2.13-20.124c.1-1.517.1-3.34-.03-4.854-.35-4.016-1.39-7.504-3.32-11.043-1.94-3.538-4.29-6.589-7.48-9.06-3.2-2.471-7.29-4.478-11.21-5.47-3.91-.898-5.41-1.03-9.41-.822-3.71.357-5.82.918-9.22 2.453-4.39 1.976-6.78 3.662-9.99 7.323-3 3.434-4.37 5.835-5.79 10.221-1.38 4.271-1.73 6.959-1.36 11.453.16 1.889.81 4.786.81 4.786l5.01 19.794c.27 1.059.59 2.101 1.02 3.107.93 2.198 2.83 6.254 4.99 8.549 3.28 3.491 5.86 4.982 10.39 6.344 4.01 1.209 10.68.685 10.68.685Z" fill="#000"/><path d="m1119 875.001 14.09 6.232a20 20 0 0 1 11.91 18.291v.477h-7l-1.01-5.571a10.01 10.01 0 0 0-6.11-7.489l-19.88-8 2-161.94-9-140-12 140-14.5 158 15.57 6.038a15.002 15.002 0 0 1 9.55 13.019l.38 5.943h-7l.24-2.971a9.997 9.997 0 0 0-6.27-10.087l-19.97-7.965 29.5-318.676c-3.4-138.312-11.59-187.25-17.33-204.46-2.39-7.134-10.29-10.288-17.8-10.012-13.51.496-35.9 6.063-51.37 34.387-18.679 34.207-33 136.561-33 136.561l9.5 60.034 13.03 30.669a15.353 15.353 0 0 0 14.13 9.353c.45 0 .81-.386.77-.835l-3.43-39.187-5-60.034 33.55-97.753c.27-.779 1-1.302 1.83-1.302 1.3 0 2.22 1.262 1.84 2.503l-29.78 95.157c-.29.921-.4 1.89-.32 2.853l8.88 109.595 2 115.583-15.35 128.104c-.34 2.904 1.92 5.46 4.85 5.46v23.023h-7.5v-15a6.343 6.343 0 0 1-5.25-7.036l16.75-134.464-2.5-119c-8.79 0-16.73-5.257-20.159-13.35L984 578.501l-10-61.5s11.472-93.965 29-130c13.38-27.5 32.13-50.205 69-47 11.5 1 16 10.998 18.5 17.499 2.5 6.501 14.5 114.001 18 202.501.44 11 11.5 157 11.5 157l-1 158Z" fill="#000"/><path fill-rule="evenodd" clip-rule="evenodd" d="M887.372 335.822c-3.631 1.731-10.598 2.844-12.433 3.009 0 0-8.275.655-13.252-.762-5.609-1.596-8.809-3.353-12.863-7.482-2.744-2.794-5.138-7.804-6.247-10.348-.455-1.043-.801-2.126-1.088-3.227l-6.182-23.706s-.797-3.436-.985-5.678c-.447-5.332.002-8.525 1.74-13.601 1.784-5.214 3.494-8.07 7.238-12.161 3.99-4.361 6.965-6.374 12.42-8.741 4.235-1.838 6.858-2.515 11.462-2.955 4.958-.266 6.827-.117 11.673.931 4.86 1.158 9.925 3.522 13.877 6.44 3.952 2.918 6.856 6.528 9.24 10.719 2.384 4.192 3.657 8.328 4.076 13.093.156 1.797.145 3.961.015 5.762l-2.768 24.167a24.201 24.201 0 0 1-.693 3.691c-.794 2.874-2.478 8.425-4.349 11.251-2.593 3.917-6.536 7.528-10.881 9.598Zm-3.033-6.459c-2.921 1.446-8.532 2.362-10.01 2.495 0 0-6.667.524-10.682-.685-4.524-1.362-7.109-2.853-10.389-6.344-2.157-2.295-4.055-6.351-4.988-8.549-.427-1.006-.748-2.048-1.016-3.107l-5.009-19.794s-.654-2.897-.812-4.786c-.378-4.494-.026-7.182 1.358-11.453 1.421-4.386 2.79-6.787 5.794-10.221 3.201-3.661 5.592-5.347 9.98-7.323 3.407-1.535 5.519-2.096 9.227-2.453 3.995-.208 5.501-.076 9.41.822 3.92.992 8.009 2.999 11.203 5.47 3.194 2.471 5.546 5.522 7.481 9.06 1.934 3.539 2.973 7.027 3.326 11.043.132 1.514.13 3.337.031 4.854l-2.128 20.124a23.629 23.629 0 0 1-.63 3.555c-.651 2.472-1.955 6.938-3.409 9.242-2.078 3.291-5.243 6.32-8.737 8.05Z" fill="#000"/><path d="M942.09 881.233 928 875.001l1-158s-11.065-146-11.5-157c-3.5-88.5-15.5-196-18-202.501-2.5-6.501-7-16.499-18.5-17.499-36.872-3.205-55.624 19.5-69 47-17.528 36.035-29 130-29 130l10 61.5 13.841 32.65A21.896 21.896 0 0 0 827 624.501l2.5 119-16.748 134.464a6.339 6.339 0 0 0 5.248 7.036v15h7.5v-23.023a4.88 4.88 0 0 1-4.846-5.46L836 743.414l-2-115.583-8.882-109.595a7.506 7.506 0 0 1 .319-2.853l29.779-95.157a1.928 1.928 0 0 0-3.663-1.201L818 516.778l5 60.034 3.427 39.187a.768.768 0 0 1-.765.835 15.358 15.358 0 0 1-14.135-9.353L798.5 576.812l-9.5-60.034s14.321-102.354 32.999-136.561c15.466-28.324 37.862-33.891 51.368-34.387 7.516-.276 15.416 2.878 17.799 10.012 5.749 17.21 13.932 66.148 17.334 204.46L879 878.978l19.974 7.965a9.999 9.999 0 0 1 6.264 10.087l-.238 2.971h7l-.383-5.943a15 15 0 0 0-9.546-13.019l-15.571-6.038 14.5-158 12-140 9 140-2 161.94 19.881 8a10 10 0 0 1 6.106 7.489l1.013 5.571h7v-.477a20 20 0 0 0-11.91-18.291Z" fill="#000"/><path fill-rule="evenodd" clip-rule="evenodd" d="M683.939 338.831c1.835-.165 8.802-1.278 12.433-3.009 4.345-2.07 8.288-5.681 10.881-9.598 1.871-2.826 3.555-8.377 4.349-11.251.333-1.209.551-2.445.693-3.691l2.768-24.167c.13-1.801.141-3.965-.015-5.762-.419-4.765-1.692-8.901-4.076-13.093-2.384-4.191-5.288-7.801-9.24-10.719-3.952-2.918-9.017-5.282-13.877-6.44-4.846-1.048-6.715-1.197-11.673-.931-4.604.44-7.227 1.117-11.462 2.955-5.455 2.367-8.43 4.38-12.42 8.741-3.744 4.091-5.454 6.947-7.238 12.161-1.738 5.076-2.187 8.269-1.74 13.601.188 2.242.985 5.678.985 5.678l6.182 23.706c.287 1.101.633 2.184 1.088 3.227 1.109 2.544 3.503 7.554 6.247 10.348 4.054 4.129 7.254 5.886 12.863 7.482 4.977 1.417 13.252.762 13.252.762Zm-.61-6.973c1.478-.133 7.089-1.049 10.01-2.495 3.494-1.73 6.659-4.759 8.737-8.05 1.454-2.304 2.758-6.77 3.409-9.242.308-1.166.503-2.355.63-3.555l2.128-20.124c.099-1.517.101-3.34-.031-4.854-.353-4.016-1.392-7.504-3.326-11.043-1.935-3.538-4.287-6.589-7.481-9.06s-7.283-4.478-11.203-5.47c-3.909-.898-5.415-1.03-9.41-.822-3.708.357-5.82.918-9.227 2.453-4.388 1.976-6.779 3.662-9.98 7.323-3.004 3.434-4.373 5.835-5.794 10.221-1.384 4.271-1.736 6.959-1.358 11.453.158 1.889.812 4.786.812 4.786l5.009 19.794c.268 1.059.589 2.101 1.016 3.107.933 2.198 2.831 6.254 4.988 8.549 3.28 3.491 5.865 4.982 10.389 6.344 4.015 1.209 10.682.685 10.682.685Z" fill="#000"/><path d="m737 875.001 14.09 6.232A20 20 0 0 1 763 899.524v.477h-7l-1.013-5.571a10 10 0 0 0-6.106-7.489l-19.881-8 2-161.94-9-140-12 140-14.5 158 15.571 6.038a15 15 0 0 1 9.546 13.019l.383 5.943h-7l.238-2.971a9.999 9.999 0 0 0-6.264-10.087L688 878.978l29.5-318.676c-3.402-138.312-11.585-187.25-17.334-204.46-2.383-7.134-10.283-10.288-17.799-10.012-13.506.496-35.902 6.063-51.368 34.387C612.321 414.424 598 516.778 598 516.778l9.5 60.034 13.027 30.669a15.358 15.358 0 0 0 14.135 9.353.768.768 0 0 0 .765-.835L632 576.812l-5-60.034 33.553-97.753a1.927 1.927 0 0 1 3.663 1.201l-29.779 95.157a7.506 7.506 0 0 0-.319 2.853L643 627.831l2 115.583-15.346 128.104a4.88 4.88 0 0 0 4.846 5.46v23.023H627v-15a6.339 6.339 0 0 1-5.248-7.036L638.5 743.501l-2.5-119a21.896 21.896 0 0 1-20.159-13.35L602 578.501l-10-61.5s11.472-93.965 29-130c13.376-27.5 32.128-50.205 69-47 11.5 1 16 10.998 18.5 17.499 2.5 6.501 14.5 114.001 18 202.501.435 11 11.5 157 11.5 157l-1 158Z" fill="#000"/></svg>

<svg width="1300" height="1000" viewBox="0 0 1300 1000" fill="none" xmlns="http://www.w3.org/2000/svg">
<path fill-rule="evenodd" clip-rule="evenodd" d="M232.808 147.518C235.1 149.173 237.845 150 241.043 150C244.241 150 246.98 149.173 249.259 147.518C251.551 145.863 253.305 143.467 254.523 140.329C255.753 137.178 256.368 133.379 256.368 128.93C256.368 124.509 255.753 120.736 254.523 117.611C253.305 114.487 251.551 112.104 249.259 110.462C246.967 108.821 244.228 108 241.043 108C237.858 108 235.119 108.821 232.827 110.462C230.548 112.104 228.794 114.487 227.564 117.611C226.347 120.722 225.732 124.496 225.719 128.93C225.719 133.365 226.327 137.158 227.544 140.309C228.774 143.447 230.529 145.85 232.808 147.518ZM246.928 140.031C245.491 142.533 243.529 143.784 241.043 143.784C239.386 143.784 237.955 143.228 236.751 142.116C235.547 140.991 234.614 139.323 233.954 137.112C233.306 134.901 232.989 132.174 233.002 128.93C233.015 124.085 233.74 120.411 235.177 117.909C236.615 115.394 238.57 114.136 241.043 114.136C242.688 114.136 244.112 114.699 245.316 115.824C246.52 116.936 247.453 118.591 248.113 120.789C248.773 122.986 249.104 125.7 249.104 128.93C249.104 133.816 248.378 137.516 246.928 140.031Z" fill="black"/>
<path fill-rule="evenodd" clip-rule="evenodd" d="M176.071 149.226C177.634 149.226 179.021 148.221 179.508 146.736L181.981 139.197H196.936L199.414 146.738C199.901 148.222 201.287 149.226 202.85 149.226C205.334 149.226 207.079 146.778 206.269 144.43L195.349 112.76C194.482 110.244 192.114 108.556 189.453 108.556C186.791 108.556 184.422 110.246 183.555 112.762L172.651 144.431C171.842 146.779 173.587 149.226 176.071 149.226ZM194.991 133.279L189.607 116.896H189.296L183.922 133.279H194.991Z" fill="black"/>
<path d="M279 113.556C279 110.795 276.761 108.556 274 108.556H273.639C272.664 108.556 271.709 108.841 270.894 109.377L263.533 114.212C262.737 114.735 262.258 115.623 262.258 116.576C262.258 118.823 264.751 120.173 266.633 118.944L271.561 115.725H271.794V145.623C271.794 147.612 273.407 149.226 275.397 149.226C277.387 149.226 279 147.612 279 145.623V113.556Z" fill="black"/>
<path fill-rule="evenodd" clip-rule="evenodd" d="M130 0H137V69H313V0H320V69H335C343.284 69 350 75.7157 350 84V174C350 182.284 343.284 189 335 189H115C106.716 189 100 182.284 100 174V84C100 75.7157 106.716 69 115 69H130V0ZM343 86C343 80.4771 338.523 76 333 76H117C111.477 76 107 80.4771 107 86V172C107 177.523 111.477 182 117 182H333C338.523 182 343 177.523 343 172V86Z" fill="black"/>
<path fill-rule="evenodd" clip-rule="evenodd" d="M1065.94 338.831C1067.77 338.666 1074.74 337.553 1078.37 335.822C1082.72 333.752 1086.66 330.141 1089.25 326.224C1091.12 323.398 1092.81 317.847 1093.6 314.973C1093.94 313.764 1094.15 312.528 1094.3 311.282L1097.06 287.115C1097.19 285.314 1097.2 283.15 1097.05 281.353C1096.63 276.588 1095.36 272.452 1092.97 268.26C1090.59 264.069 1087.68 260.459 1083.73 257.541C1079.78 254.623 1074.72 252.259 1069.85 251.101C1065.01 250.053 1063.14 249.904 1058.18 250.17C1053.58 250.61 1050.96 251.287 1046.72 253.125C1041.27 255.492 1038.29 257.505 1034.3 261.866C1030.56 265.957 1028.85 268.813 1027.06 274.027C1025.32 279.103 1024.87 282.296 1025.32 287.628C1025.51 289.87 1026.31 293.306 1026.31 293.306L1032.49 317.012C1032.78 318.113 1033.12 319.196 1033.58 320.239C1034.69 322.783 1037.08 327.793 1039.82 330.587C1043.88 334.716 1047.08 336.473 1052.69 338.069C1057.66 339.486 1065.94 338.831 1065.94 338.831ZM1065.33 331.858C1066.81 331.725 1072.42 330.809 1075.34 329.363C1078.83 327.633 1082 324.604 1084.08 321.313C1085.53 319.009 1086.83 314.543 1087.49 312.071C1087.79 310.905 1087.99 309.716 1088.11 308.516L1090.24 288.392C1090.34 286.875 1090.34 285.052 1090.21 283.538C1089.86 279.522 1088.82 276.034 1086.89 272.495C1084.95 268.957 1082.6 265.906 1079.41 263.435C1076.21 260.964 1072.12 258.957 1068.2 257.965C1064.29 257.067 1062.79 256.935 1058.79 257.143C1055.08 257.5 1052.97 258.061 1049.57 259.596C1045.18 261.572 1042.79 263.258 1039.58 266.919C1036.58 270.353 1035.21 272.754 1033.79 277.14C1032.41 281.411 1032.06 284.099 1032.43 288.593C1032.59 290.482 1033.24 293.379 1033.24 293.379L1038.25 313.173C1038.52 314.232 1038.84 315.274 1039.27 316.28C1040.2 318.478 1042.1 322.534 1044.26 324.829C1047.54 328.32 1050.12 329.811 1054.65 331.173C1058.66 332.382 1065.33 331.858 1065.33 331.858Z" fill="black"/>
<path d="M1119 875.001L1133.09 881.233C1140.33 884.435 1145 891.607 1145 899.524V900.001L1138 900.001L1136.99 894.43C1136.37 891.051 1134.07 888.223 1130.88 886.941L1111 878.941L1113 717.001L1104 577.001L1092 717.001L1077.5 875.001L1093.07 881.039C1098.52 883.15 1102.24 888.23 1102.62 894.058L1103 900.001L1096 900.001L1096.24 897.03C1096.59 892.658 1094.05 888.567 1089.97 886.943L1070 878.978L1099.5 560.302C1096.1 421.99 1087.91 373.052 1082.17 355.842C1079.78 348.708 1071.88 345.554 1064.37 345.83C1050.86 346.326 1028.47 351.893 1013 380.217C994.321 414.424 980 516.778 980 516.778L989.5 576.812L1002.53 607.481C1004.94 613.152 1010.5 616.834 1016.66 616.834C1017.11 616.834 1017.47 616.448 1017.43 615.999L1014 576.812L1009 516.778L1042.55 419.025C1042.82 418.246 1043.55 417.723 1044.38 417.723C1045.68 417.723 1046.6 418.985 1046.22 420.226L1016.44 515.383C1016.15 516.304 1016.04 517.273 1016.12 518.236L1025 627.831L1027 743.414L1011.65 871.518C1011.31 874.422 1013.57 876.978 1016.5 876.978V900.001L1009 900.001V885.001C1005.65 884.442 1003.33 881.338 1003.75 877.965L1020.5 743.501L1018 624.501C1009.21 624.501 1001.27 619.244 997.841 611.151L984 578.501L974 517.001C974 517.001 985.472 423.036 1003 387.001C1016.38 359.501 1035.13 336.796 1072 340.001C1083.5 341.001 1088 350.999 1090.5 357.5C1093 364.001 1105 471.501 1108.5 560.001C1108.94 571.001 1120 717.001 1120 717.001L1119 875.001Z" fill="black"/>
<path fill-rule="evenodd" clip-rule="evenodd" d="M887.372 335.822C883.741 337.553 876.774 338.666 874.939 338.831C874.939 338.831 866.664 339.486 861.687 338.069C856.078 336.473 852.878 334.716 848.824 330.587C846.08 327.793 843.686 322.783 842.577 320.239C842.122 319.196 841.776 318.113 841.489 317.012L835.307 293.306C835.307 293.306 834.51 289.87 834.322 287.628C833.875 282.296 834.324 279.103 836.062 274.027C837.846 268.813 839.556 265.957 843.3 261.866C847.29 257.505 850.265 255.492 855.72 253.125C859.955 251.287 862.578 250.61 867.182 250.17C872.14 249.904 874.009 250.053 878.855 251.101C883.715 252.259 888.78 254.623 892.732 257.541C896.684 260.459 899.588 264.069 901.972 268.26C904.356 272.452 905.629 276.588 906.048 281.353C906.204 283.15 906.193 285.314 906.063 287.115L903.295 311.282C903.153 312.528 902.935 313.764 902.602 314.973C901.808 317.847 900.124 323.398 898.253 326.224C895.66 330.141 891.717 333.752 887.372 335.822ZM884.339 329.363C881.418 330.809 875.807 331.725 874.329 331.858C874.329 331.858 867.662 332.382 863.647 331.173C859.123 329.811 856.538 328.32 853.258 324.829C851.101 322.534 849.203 318.478 848.27 316.28C847.843 315.274 847.522 314.232 847.254 313.173L842.245 293.379C842.245 293.379 841.591 290.482 841.433 288.593C841.055 284.099 841.407 281.411 842.791 277.14C844.212 272.754 845.581 270.353 848.585 266.919C851.786 263.258 854.177 261.572 858.565 259.596C861.972 258.061 864.084 257.5 867.792 257.143C871.787 256.935 873.293 257.067 877.202 257.965C881.122 258.957 885.211 260.964 888.405 263.435C891.599 265.906 893.951 268.957 895.886 272.495C897.82 276.034 898.859 279.522 899.212 283.538C899.344 285.052 899.342 286.875 899.243 288.392L897.115 308.516C896.988 309.716 896.793 310.905 896.485 312.071C895.834 314.543 894.53 319.009 893.076 321.313C890.998 324.604 887.833 327.633 884.339 329.363Z" fill="black"/>
<path d="M942.09 881.233L928 875.001L929 717.001C929 717.001 917.935 571.001 917.5 560.001C914 471.501 902 364.001 899.5 357.5C897 350.999 892.5 341.001 881 340.001C844.128 336.796 825.376 359.501 812 387.001C794.472 423.036 783 517.001 783 517.001L793 578.501L806.841 611.151C810.272 619.244 818.21 624.501 827 624.501L829.5 743.501L812.752 877.965C812.332 881.338 814.647 884.442 818 885.001V900.001L825.5 900.001V876.978C822.574 876.978 820.306 874.422 820.654 871.518L836 743.414L834 627.831L825.118 518.236C825.04 517.273 825.148 516.304 825.437 515.383L855.216 420.226C855.604 418.985 854.677 417.723 853.376 417.723C852.553 417.723 851.82 418.246 851.553 419.025L818 516.778L823 576.812L826.427 615.999C826.466 616.448 826.113 616.834 825.662 616.834C819.501 616.834 813.936 613.152 811.527 607.481L798.5 576.812L789 516.778C789 516.778 803.321 414.424 821.999 380.217C837.465 351.893 859.861 346.326 873.367 345.83C880.883 345.554 888.783 348.708 891.166 355.842C896.915 373.052 905.098 421.99 908.5 560.302L879 878.978L898.974 886.943C903.048 888.567 905.589 892.658 905.238 897.03L905 900.001L912 900.001L911.617 894.058C911.241 888.23 907.516 883.15 902.071 881.039L886.5 875.001L901 717.001L913 577.001L922 717.001L920 878.941L939.881 886.941C943.067 888.223 945.373 891.051 945.987 894.43L947 900.001L954 900.001V899.524C954 891.607 949.33 884.435 942.09 881.233Z" fill="black"/>
<path fill-rule="evenodd" clip-rule="evenodd" d="M683.939 338.831C685.774 338.666 692.741 337.553 696.372 335.822C700.717 333.752 704.66 330.141 707.253 326.224C709.124 323.398 710.808 317.847 711.602 314.973C711.935 313.764 712.153 312.528 712.295 311.282L715.063 287.115C715.193 285.314 715.204 283.15 715.048 281.353C714.629 276.588 713.356 272.452 710.972 268.26C708.588 264.069 705.684 260.459 701.732 257.541C697.78 254.623 692.715 252.259 687.855 251.101C683.009 250.053 681.14 249.904 676.182 250.17C671.578 250.61 668.955 251.287 664.72 253.125C659.265 255.492 656.29 257.505 652.3 261.866C648.556 265.957 646.846 268.813 645.062 274.027C643.324 279.103 642.875 282.296 643.322 287.628C643.51 289.87 644.307 293.306 644.307 293.306L650.489 317.012C650.776 318.113 651.122 319.196 651.577 320.239C652.686 322.783 655.08 327.793 657.824 330.587C661.878 334.716 665.078 336.473 670.687 338.069C675.664 339.486 683.939 338.831 683.939 338.831ZM683.329 331.858C684.807 331.725 690.418 330.809 693.339 329.363C696.833 327.633 699.998 324.604 702.076 321.313C703.53 319.009 704.834 314.543 705.485 312.071C705.793 310.905 705.988 309.716 706.115 308.516L708.243 288.392C708.342 286.875 708.344 285.052 708.212 283.538C707.859 279.522 706.82 276.034 704.886 272.495C702.951 268.957 700.599 265.906 697.405 263.435C694.211 260.964 690.122 258.957 686.202 257.965C682.293 257.067 680.787 256.935 676.792 257.143C673.084 257.5 670.972 258.061 667.565 259.596C663.177 261.572 660.786 263.258 657.585 266.919C654.581 270.353 653.212 272.754 651.791 277.14C650.407 281.411 650.055 284.099 650.433 288.593C650.591 290.482 651.245 293.379 651.245 293.379L656.254 313.173C656.522 314.232 656.843 315.274 657.27 316.28C658.203 318.478 660.101 322.534 662.258 324.829C665.538 328.32 668.123 329.811 672.647 331.173C676.662 332.382 683.329 331.858 683.329 331.858Z" fill="black"/>
<path d="M737 875.001L751.09 881.233C758.33 884.435 763 891.607 763 899.524V900.001L756 900.001L754.987 894.43C754.373 891.051 752.067 888.223 748.881 886.941L729 878.941L731 717.001L722 577.001L710 717.001L695.5 875.001L711.071 881.039C716.516 883.15 720.241 888.23 720.617 894.058L721 900.001L714 900.001L714.238 897.03C714.589 892.658 712.048 888.567 707.974 886.943L688 878.978L717.5 560.302C714.098 421.99 705.915 373.052 700.166 355.842C697.783 348.708 689.883 345.554 682.367 345.83C668.861 346.326 646.465 351.893 630.999 380.217C612.321 414.424 598 516.778 598 516.778L607.5 576.812L620.527 607.481C622.936 613.152 628.501 616.834 634.662 616.834C635.113 616.834 635.466 616.448 635.427 615.999L632 576.812L627 516.778L660.553 419.025C660.82 418.246 661.553 417.723 662.376 417.723C663.677 417.723 664.604 418.985 664.216 420.226L634.437 515.383C634.148 516.304 634.04 517.273 634.118 518.236L643 627.831L645 743.414L629.654 871.518C629.306 874.422 631.574 876.978 634.5 876.978V900.001L627 900.001V885.001C623.647 884.442 621.332 881.338 621.752 877.965L638.5 743.501L636 624.501C627.21 624.501 619.272 619.244 615.841 611.151L602 578.501L592 517.001C592 517.001 603.472 423.036 621 387.001C634.376 359.501 653.128 336.796 690 340.001C701.5 341.001 706 350.999 708.5 357.5C711 364.001 723 471.501 726.5 560.001C726.935 571.001 738 717.001 738 717.001L737 875.001Z" fill="black"/>
</svg>
